!!!Genre:	Olandre (lyondre)
!!!Mode:	Minor
!!!Listening/dance:	dance
!!!One_Mode:	no
**kern
*I"P1
*clefG2
*k[b-e-]
*g:
*M3/8
*>A
=1
16g'LL
(16b-
16dd)
(16g
16b-)
16dd'JJ
=2
16ggLL
16dd
(8qff/
16ee-)
16ccJJ
(16qqcc/LL
16qqee-/JJ
8dd)
=3
16g'LL
(16b-
16dd)
(16g
16b-)
16dd'JJ
=4
(16ccLL
16b-)
(16b-
16aJJ)
24b-LL
24a
24gJJ
=5:|!|:
*>bM
*F:
*>B
16f'LL
(16a
16cc)
(16f
16a)
16cc'JJ
=6
(16b-LL
16aJJ)
24b-LL
24a
24gJJ
(16gLL
(8qb-/
16aJJ))
=7
16f'LL
(16a
16cc)
(16f
16a)
16cc'JJ
=8
(16b-LL
16aJJ)
24b-LL
24a
24gJJ
8f
=9:|!
*>eM
*g:
(16b-LL
16aJJ)
24b-LL
24a
24gJJ
8g
==
*-
